X: 11
T: No_1_Song_of_the_Hesi_Dance_(a).krn
N: Derived from No_1_Song_of_the_Hesi_Dance_(a).krn
%%abc-version 2.0
%%abcx-abcm2ps-target-version 5.9.1 (29 Sep 2008)
%%abc-creator hum2abc beta
%%abcx-conversion-date 2019/03/15 08:35:00
%%humdrum-veritas 523010008
%%humdrum-veritas-data 101935921
%%linebreak <none>
%%barnumbers 0
L: 1/16
M: 2/4
K: Eb clef=bass
[K:clef=bass][M:2/4]G,4(G,F,)G, z | 
G,2(F,E,) C,2E,2 | 
F,4(F,E,)G,2 | 
G,2F,E, C,2F,2 | 
G,4E,2G, z | 
G,2F,E, C,2E, z | 
F,4F,E,E,2 | 
G,2F,E, C,2F,2 | 
G,4(G,F,)G, z | 
F,2(F,E,) C,2E, z | 
F,4(F,E,)G, z | 
G,2F,E, C,2E, z | 
G,4(G,F,)G, z | 
F,2(F,E,) C,2E, z | 
F,4F,E,G, z | 
G,2(F,E,) C,2F, z | 
G,3F, E,2G,2 | 
G,2G,F, C,2E, z | 
F,4E,3G, | 
G,2(F,E,) C,2F, z | 
G,4F,F,G, z | 
E,2E,C, C,2E, z | 
F,4E,2G,2 | 
G,2F,E, C,2F, z | 
G,4F,2G,2 | 
G,2F,E, C,2E, z | 
F,4E,2G, z | 
G,2F,E, C,2E, z | 
F,4E,2G,2 | 
F,2F,E, C,2F, z | 
G,4(G,F,)G,2 | 
G,2F,E, C,2E, z | 
F,4E,2G,2 | 
G,2(F,E,) C,2F, z | 
F,4E,2F,2 | 
F,2(F,E,) C,2E, z | 
G,4F,2G,2 | 
F,2(F,E,) C,2F, z | 
F,4E,2G,2 | 
F,2(F,E,) C,2E, z | 
F,4E,2F,2 | 
F,2(F,E,) C,2E, z |]  



